X:1
T:Hommage d Edmond Parizeau
C:Marcel Messervier
L:1/8
M:2/2
I:linebreak $
K:A
V:1 treble nm="Voice" snm="Voice"
V:1
 ABcd | eAAe AAeA | AAeA (3eee e2 | ceAB cAeA | ceAc dedc |$ B4 BABc | (3BcB Ac eeed | c2 B2 ABcA | %8
 E4 ABcd ||$ eAAe AAeA | AAeA (3efe ed | ceAB cAeA | ceAc dedc |$ B4 BABc | e2 d2 c2 B2 | %15
 Afed cdBc | A2 c2 (3BcB A2 |:$ a4 f4 | d3 A d2 fd | e4 efec | A2 c2 (3BcB A2 | B2 BABc |$ %22
 e2 d2 c2 B2 |1 cBAc ecef | e2 c2 BcB A2 :|2 Afed cdBc | A4 |] %27
